X: 40358
T: Tom Connor's
R: hornpipe
M: 4/4
K: Gmajor
|:dBcA GBdB|(3ABA FA DAFA|DGGF GBdB|A2 AG A2fe|
dBcA GBdB|(3ABA FA DAFA|g2 fg ecAF|G2 GF GABc|
dBcA GBdB|(3ABA FA DAFA|DGGF GBdB|(3ABA GB A2fe|
dBcA GBdB|(3ABA FA DAFA|g2 fg ecAF|G2 GF G2Bc||
|:d~g3 d~g3|d~g3 fd^cd|eaag aged|(3Bcd ef gf g2|
dBcA GBdB|(3ABA FA DAFA|g2 fg ecAF|G2 GF G2Bc:|

